X:1
T:Wherefore sit I complaining - Philips
T:#
%%score [ 1 2 3 4 ]
L:1/8
Q:1/4=132
M:none
K:Eb
V:1 treble nm="Soprano" snm="S"
V:2 treble nm="Alto" snm="A"
V:3 treble-8 nm="Tenor" snm="T"
V:4 bass nm="Bass" snm="B"
V:1
 c8"^Wherefore sit I complaining" c4 c4- | c2 c2 d4 e8 | d8 G2"^Peter Philips\n(1561-1628)" d4 e2 | %3
w: Where- fore sit|* I com- plain-|ing, With sobs and|
 c4 d4 G2 G2 c4- |[M:4/2] c4 B8 A4- | A2 A2 G4 G4 F4 | E8 D8 | z8 e2 d4 c2 | B6 A2 (G4 F4) | %9
w: groan- ings, sobs and groan-|* ings, out,|* a- las, my dis-|dain- ing?|Ne- ver this|mirth con- tents *|
 E2 e2 d4 c4 B4 | =A4 B4 c4 z4 | z8 z4 z2 f2- | f2 e4 d4 c4 B2- | B2 A4 G2 z4 G4 | G6 =A2 B4 c4 | %15
w: me, ne- ver this mirth|con- tents me,|When|* grief of mind tor\-|* ments me. But|cease this weep- ing,|
 B4 B4 c4 B4 | A8 G2 G4 A2 | B4 c2 d2 e6 d2 | c2 B2 A2 (G4 F2) G4 | z4 d4 e4 c4 | e4 d4 c8- | %21
w: fool, she does but|prove thee; Com- fort|false, hence a- way, for|thou canst not move * me,|And you that|saw too much,|
 c4 =B4 c4 c4 | e4 d4 (c4 G4) | G16 | z4 G4 =A4 B2 c2- | c2 e2 d4 e4 z2 B2 | c4 B2 A4 G2 F4 | %27
w: * mine eyes, shall|dear- ly buy *|it.|Still thus to weep|* for- ev- er Your|foun- tains shall per- se-|
 G4 z4 z4 z2 B2 | B4 c2 d4 f2 e4 | d4 d4 e4 B2 c2- | c2 B2 A4 G4 G4 | c4 d4 (=B2 c4 B2) | %32
w: ver, your|foun- tains shall per- se-|ver. O eyes that did|* e- spy it, that|did e- spy * *|
 c8 z2 c2 e4 | d4 c3 c B2 G2 c2 c2 | B2 G2 z4 z4 d4 | e4 d4 c3 c B2 G2 | E2 F2 G4 F2 c2 e4 | %37
w: it. False com-|fort, hence, for thou canst ne- ver|ease me, false|com- fort, hence, for thou canst|ne- ver ease me, false com-|
 d4 c3 c B2 G2 A2 A2 | (G3 A/B/ c4) B8 | z8 d8 | e8 c8 | c8 B4 G4- | G4 c6 (=B=A B4) | %43
w: fort, hence, for thou canst ne- ver|ease * * * me;|A-|way, I|say, thou canst|* not please * *|
 c4 z2 e4 d2 e4 | B4 z2 c4 B2 c4 | (G3 A B4) z2 e4 d2 | e4 d4 z2 c2 c2 =B2 | c4 d4 z2 c2 c2 =B2 | %48
w: me. Phyl- lis, I|cry, Phyl- lis, I|cry, * * Phyl- lis,|I cry, for want of|dy- ing, for want of|
 c4 d4 e8 | d4 d6 c2 (c4- | c4 =B4) c8- | c8 |] %52
w: dy- ing, See,|I die, see, I|* * die.||
V:2
 G8 A4 G4- | G2 G2 G4 G8 | G8 G2 G4 G2 | F4 F4 E2 E2 A4- |[M:4/2] A4 G4 E8 | E6 C2 E4 F4 | G8 G8 | %7
w: Where- fore sit|* I com- plain-|ing, With sobs and|groan- ings, sobs and groan-|* ings, groan-|ings, ah, my dis-|dain- ing?|
 z4 z2 B4 A4 G2- | G2 F4 E4 D4 C2 | z2 G4 F4 E4 D2- | D2 C4 (B,2 A,4) G,4 | z2 F2 E2 D4 C4 B,2 | %12
w: Ne- ver this|* mirth con- tents me,|ne- ver this mirth|* con- tents * me|nev- er this mirth con-|
 A,2 G,2 z2 B2 A2 G2 G2 F2 | E4 C2 z2 z4 =E4 | E6 F2 G4 F4 | G6 G2 F2 E2 (E4- | E4 D4) E4 E2 E2 | %17
w: tents me When grief of mind tor-|ments me. But|cease this weep- ing,|fool, she does but prove|* * thee; Com- fort|
 F2 G4 A2 B2 c3 c B2 | G4 F2 B,2 C2 C2 D4 | F8 z4 G4 | B6 A2 G4 F4 | G4 z2 G2 G4 A4 | G6 F2 E4 C4 | %23
w: false, hence a- way, hence, a- way,|thou canst not, canst not move|me, And|you that saw too|much, that saw too|much, mine eyes, shall|
 C4 D4 E8 | D4 =E4 F4 G2 !courtesy!_A2- | A2 G2 B4 G4 G4 | A4 G2 F4 E2 D4 | E4 A2 G4 G2 F4 | %28
w: dear- ly buy|it. Still thus to weep|* for- ev- er Your|foun- tains shall per- se-|ver, your foun- tains, your|
 G4 A2 B4 F2 (G2 A2) | B4 F4 G4 E2 E2- | E2 E2 E4 E4 E4 | G4 A4 G8 | =E4 z2 G2 A4 G4 | %33
w: foun- tains shall per- se\- *|ver. O eyes that did|* e- spy it, that|did e- spy|it. False com- fort,|
 F3 F E2 C2 D2 E2 (E2 F2) | G2 G2 A4 G4 F2 D2 | G3 G G2 G2 E4 E4 | z4 B3 B A2 F2 G2 A2 | %37
w: hence, for thou canst nev- er ease *|me, false com- fort, hence, for|thou canst ne- ver ease me,|hence, for thou canst ne- ver|
 B4 E2 F2 G2 E2 F3 F | B2 G2 G2 F2 G8 | F16 | z4 E8 F4- | F4 E8 E4 | G4 G4 G8 | G8 G6 E2 | %44
w: ease me, false com- fort, hence, for|thou cans't ne- ver ease|me;|A- way,|* now, thou|cans't not please|me. Phyl- lis,|
 G4 C4 z2 E4 C2 | E4 G2 F2 G4 F4 | (G3 A) B2 G4 F2 G4- | G4 G6 G2 G4- | G2 G2 F2 D2 G4 G4 | %49
w: I cry, Phyl- lis,|I cry, for want of|dy- * ing, want of dy\-|* ing, for want|* of dy- ing I die,|
 z2 G2 G8 F4 | G8 G8- | G8 |] %52
w: I die, see,|I die.||
V:3
 e8 f4 e4- | e2 e2 d4 c8 | =B8 _B2 B4 c2 | =A4 =B4 c4 e4 |[M:4/2][K:treble-8] (e6 B2) c8 | %5
w: Where- fore sit|* I com- plain-|ing, With sobs and|groan- ings, sobs and|groan\- * ings,|
 B4 B4 A4 A4 | (G2 AB c4) =B8 | z4 g6 f4 e2- | e2 d4 c4 B4 A2 | z8 z8 | z4 f6 e4 d2 | %11
w: a- las, my dis-|dain\- * * * ings?|Ne- ver this|* mirth con- tents me,||ne- ver this|
 c4 B4 (A3 G F4) | c4 g4 f2 e2 d2 d2 | c2 c2 z4 z4 c4 | c6 c2 e4 c4 | d4 e4 c4 e4 | f8 B4 B2 c2 | %17
w: mirth con- tents * *|me, When grief of mind tor-|ments me. But|cease this weep- ing,|fool, she does but|prove thee; Com- fort|
 d2 e4 f2 g2 c2 g2 f2 | (e4 d4) c4 z2 B2 | c2 c2 =B4 c8 | z4 d4 e4 c4 | e4 d4 c8- | c4 =B4 c4 c4 | %23
w: false, hence a- way, thou canst not|move * me, thou|canst not move me,|And you that|saw too much,|* mine eyes, shall|
 e4 d4 c8 | =B4 _B4 c4 e2 e2- | e2 e2 f4 e4 e4 | A4 B2 _d4 e2 B4 | B2 c4 B4 e2 d4 | %28
w: dear- ly buy|it. Still thus to weep|* for- ev- er Your|foun- tains shall per- se-|ver, your foun- tains, your|
 e4 c2 B4 d2 c4 | B4 B4 B4 G2 A2- | A2 B2 c4 B4 B4 | e2 e2 (f6 e2 d4) | c16 | z8 z4 c4 | %34
w: foun- tains shall per- se-|ver. O eyes that did|* e- spy it, that|did e- spy * *|it.|False|
 e4 d2 c4 c2 c2 B2 | c2 G2 B4 c4 z4 | c3 c B2 G2 c4 c4 | B2 G2 A3 A G2 c2 c2 c2 | e4 c2 c2 e8 | %39
w: com- fort, hence, for thou canst|ne- ver ease me,|hence, for thou canst ne- ver|ease me, hence, for thou canst ne- ver|ease me, canst ne-|
 d4 (c8 =B4) | c4 G4 A8 | G8 G4 B4 | (e8 d8) | e4 c6 =B2 c4 | G4 z2 A4 G2 A4 | E4 z2 B4 G2 B4 | %46
w: ver ease *|me; A- way,|thou canst not|please *|me. Phyl- lis, I|cry, Phyl- lis, I|cry, Phyl- lis, I|
 E4 z2 B2 c2 c2 d4 | c4 z2 G2 e2 e2 d4 | c4 c2 =B2 c2 c2 c4- | c4 B4 (c8 | d8) =e8- | e8 |] %52
w: cry, for want of dy-|ing, for want of dy-|ing, See, I die, I die,|* see, I|* die.||
V:4
 C8 F,4 C4- | C2 C2 =B,4 (C4 C,4) | G,8 G,2 G,4 C,2 | F,4 D,4 C,4 C,4 |[M:4/2] E,8- E,8 | %5
w: Where- fore sit|* I com- plain\- *|ing With sobs and|groan- ings, my dis-|dain- *|
 E,4 E,4 C,8- | C,8 G,8- | G,8 z8 | z8 z8 | C4 B,4 A,4 G,4 | F,4 D,4 C,2 C4 B,2- | %11
w: ing, dis- dain\-|* ing?|||Ne- ver this mirth|con- tents me, ne- ver|
 B,2 A,2 G,2 G,2 (F,3 E, D,4) | C,4 z4 z8 | z8 C,8 | C,6 F,2 E,4 A,4 | G,4 E,4 A,4 G,4 | F,8 E,8 | %17
w: * this mirth con- tents * *|me;|But|cease this weep- ing,|fool, she does but|prove thee;|
 z8 z2 C,4 D,2 | E,4 F,2 G,2 A,4 G,4 | F,2 E,2 D,4 C,4 C,4 | G,6 F,2 E,4 A,4 | G,4 G,4 =E,4 F,4 | %22
w: Com- fort|false, hence a- way, thou|canst not move me, And|you that saw too|much, mine eyes, shall|
 G,8 C,4 z2 C,2 | C,4 =B,,4 C,8 | G,4 G,4 F,4 E,2 A,2- | A,2 C2 B,4 E,8 | z8 z4 B,,4 | %27
w: dear- ly, shall|dear- ly buy|it. Still thus to weep|* for- ev- er|your|
 E,4 F,2 G,4 E,2 B,4 | E,4 z4 z8 | z4 B,,4 E,4 E,2 A,,2- | A,,2 G,,2 A,,4 E,4 E,4 | C,4 F,4 G,8 | %32
w: foun- tains shall per- se-|ver,|O eyes that did|* e- spy it, that|did e- spy|
 C,16 | z8 G,4 A,4 | G,4 F,3 F, E,2 C,2 F,2 G,2 | C,4 G,4 A,3 A, G,2 E,2 | A,4 E,4 F,4 C,4 | %37
w: it.|False com-|fort, hence, for thou canst ne- ver|ease me, hence, for thou canst|ne- ver ease me,|
 z8 z2 C,2 F,4 | E,4 A,3 A, G,4 E,4 | F,4 E,4 D,8 | C,8 z8 | C,8 E,8 | (C,2 D,2 E,2 F,2) G,8 | %43
w: false com-|fort, hence, for thou canst|ne- ver ease|me;|thou canst|not * * * please|
 C,8 z8 | z8 z8 | z2 E,4 D,2 E,4 B,,4 | z2 E,2 G,2 G,2 A,4 G,4 | z2 C2 C2 =B,2 C4 G,4 | %48
w: me.||Phyl- lis, I cry,|for want of dy- ing,|for want of dy- ing,|
 z2 C,2 F,2 G,2 C,8 | G,4 G,4 E,4 A,4 | G,8 C,8- | C,8 |] %52
w: for want of dy-|ing, I die, See,|I die.||

